images/arrow-down.svg

<svg width="83" height="73" viewBox="0 0 83 73" fill="none" xmlns="http://www.w3.org/2000/svg">
<path d="M54.6773 50.1875C52.1576 50.1875 50.1218 52.2264 50.1218 54.75C50.1218 57.2736 52.1576 59.3125 54.6773 59.3125H77.4551C79.9749 59.3125 82.0107 57.2736 82.0107 54.75V31.9375C82.0107 29.4139 79.9749 27.375 77.4551 27.375C74.9353 27.375 72.8996 29.4139 72.8996 31.9375V43.7287L48.7836 19.5902C47.0041 17.808 44.1141 17.808 42.3346 19.5902L27.344 34.6037L7.78359 15.0277C6.00408 13.2455 3.11415 13.2455 1.33464 15.0277C-0.444878 16.81 -0.444878 19.7043 1.33464 21.4865L24.1124 44.299C25.8919 46.0813 28.7819 46.0813 30.5614 44.299L45.5662 29.2713L66.4506 50.1875H54.6773Z" fill="#29ABE2"/>
</svg>

<svg xmlns="http://www.w3.org/2000/svg" width="83" height="73" fill="none" viewBox="0 0 83 73"><path fill="#29abe2" d="M54.677 50.188a4.554 4.554 0 0 0-4.555 4.562 4.554 4.554 0 0 0 4.555 4.563h22.778a4.554 4.554 0 0 0 4.556-4.563V31.938a4.554 4.554 0 0 0-4.556-4.563 4.554 4.554 0 0 0-4.555 4.563v11.79L48.784 19.59a4.56 4.56 0 0 0-6.45 0l-14.99 15.014-19.56-19.576a4.56 4.56 0 0 0-6.45 0 4.574 4.574 0 0 0 0 6.458L24.113 44.3a4.557 4.557 0 0 0 6.45 0l15.004-15.028 20.885 20.917z"/></svg>
